X:28
T:RVW2/2/28 On Monday Morning
C:Willingale Doe, Essex, 14 April 1904
L:1/8
Q:1/4=108
M:6/8
I:linebreak $
K:G
"^(Editorial suggestion)  " G | B2 G A2 F | G2 E D2 D | E2 F GFE |1 D2 C B,2 :|2$ 
w: |||||
D2 C B,2 !fermata!c || B2 G AGF | G3 c3 | B2 G AGF | G3- G2 |] 
w: * * * Fol-|lol- de- lid- dle- lol-|lay fol-|lol- de- lid- dle- lol-|lay. *|



